app/assets/images/payment_icons/affirm.svg

<svg width="38" height="24" viewBox="0 0 38 24" role="img" fill="none" xmlns="http://www.w3.org/2000/svg" aria-labelledby="pi-affirm">
<title id="pi-affirm">Affirm</title>
<rect width="38" height="24" rx="2" fill="white"/>
<rect x="0.5" y="0.5" width="37" height="23" rx="1.5" stroke="black" stroke-opacity="0.7"/>
<g clip-path="url(#clip0)">
<path fill-rule="evenodd" clip-rule="evenodd" d="M5.09827 16.6688C4.70251 16.6688 4.5009 16.4739 4.5009 16.1535C4.5009 15.5562 5.16696 15.3553 6.38185 15.2261C6.38185 16.0221 5.84348 16.6688 5.09453 16.6688H5.09827ZM5.62096 12.1923C4.75254 12.1923 3.7542 12.6007 3.21209 13.0331L3.70716 14.0784C4.14174 13.6804 4.84439 13.3399 5.47834 13.3399C6.08093 13.3399 6.41396 13.5416 6.41396 13.9478C6.41396 14.2203 6.19368 14.3585 5.77702 14.413C4.2194 14.6146 2.99854 15.0447 2.99854 16.2446C2.99854 17.1959 3.6758 17.7716 4.73388 17.7716C5.48954 17.7716 6.16157 17.352 6.48116 16.8009V17.6223H7.88945V14.1807C7.88945 12.762 6.90454 12.1893 5.62171 12.1893L5.62096 12.1923Z" fill="#101820"/>
<path fill-rule="evenodd" clip-rule="evenodd" d="M19.7553 12.3468V17.6156H21.2622V15.0768C21.2622 13.8709 21.9924 13.5162 22.5009 13.5162C22.7299 13.5144 22.9542 13.5807 23.1453 13.7066L23.4209 12.314C23.2074 12.2285 22.9788 12.1871 22.7488 12.1923C21.9745 12.1923 21.4877 12.535 21.1666 13.2324V12.3468H19.7553Z" fill="#101820"/>
<path fill-rule="evenodd" clip-rule="evenodd" d="M30.4041 12.1923C29.6073 12.1923 29.0115 12.6627 28.7016 13.1167C28.4141 12.5305 27.8055 12.1923 27.0738 12.1923C26.2778 12.1923 25.726 12.6343 25.4713 13.1436V12.3468H24.0182V17.6156H25.5266V14.9028C25.5266 13.9321 26.0366 13.4624 26.5122 13.4624C26.9431 13.4624 27.3388 13.7409 27.3388 14.46V17.6156H28.8442V14.9028C28.8442 13.9179 29.3415 13.4624 29.8396 13.4624C30.2383 13.4624 30.6609 13.7521 30.6609 14.4495V17.6156H32.1663V13.9732C32.1663 12.7896 31.3695 12.1923 30.407 12.1923" fill="#101820"/>
<path fill-rule="evenodd" clip-rule="evenodd" d="M16.0883 12.3468H14.7233V11.8114C14.7233 11.114 15.1213 10.9154 15.464 10.9154C15.698 10.9185 15.9281 10.976 16.136 11.0834L16.6005 10.0209C16.6005 10.0209 16.1293 9.71321 15.2729 9.71321C14.3104 9.71321 13.2149 10.2561 13.2149 11.9593V12.3468H10.9338V11.8114C10.9338 11.114 11.331 10.9154 11.6745 10.9154C11.9089 10.9154 12.1397 10.9731 12.3465 11.0834L12.811 10.0209C12.5339 9.85882 12.0882 9.71321 11.4841 9.71321C10.5216 9.71321 9.42617 10.2561 9.42617 11.9593V12.3468H8.55402V13.5087H9.42841V17.6156H10.9338V13.5087H13.2179V17.6156H14.7233V13.5087H16.0883V12.3468Z" fill="#101820"/>
<path d="M18.4911 12.3468H16.9872V17.6133H18.4911V12.3468Z" fill="#101820"/>
<path fill-rule="evenodd" clip-rule="evenodd" d="M17.0425 11.4515H18.5158C19.3752 8.7492 22.2911 6.37394 25.7588 6.37394C29.9762 6.37394 33.6209 9.58477 33.6209 14.5832C33.6337 15.6092 33.4927 16.6313 33.2027 17.6156H34.6326L34.6468 17.5663C34.8878 16.5919 35.0067 15.5914 35.0008 14.5877C35.0008 9.01354 30.9387 5.0015 25.7618 5.0015C21.6953 5.0015 18.0708 7.82404 17.0433 11.453L17.0425 11.4515Z" fill="#4A4AF4"/>
</g>
<defs>
<clipPath id="clip0">
<rect width="32" height="12.7686" fill="white" transform="translate(3 5)"/>
</clipPath>
</defs>
</svg>

<svg width="38" height="24" viewBox="0 0 38 24" role="img" fill="none" xmlns="http://www.w3.org/2000/svg" aria-labelledby="pi-affirm"><title id="pi-affirm">Affirm</title><rect width="38" height="24" rx="2" fill="#fff"/><rect x=".5" y=".5" width="37" height="23" rx="1.5" stroke="#000" stroke-opacity=".7"/><g clip-path="url(#clip0)"><path fill-rule="evenodd" clip-rule="evenodd" d="M5.098 16.669c-.395 0-.597-.195-.597-.515 0-.598.666-.799 1.88-.928 0 .796-.538 1.443-1.286 1.443h.003zm.523-4.477c-.868 0-1.867.409-2.409.841l.495 1.045c.435-.398 1.137-.738 1.771-.738.603 0 .936.202.936.608 0 .272-.22.41-.637.465-1.558.202-2.778.632-2.778 1.832 0 .95.677 1.527 1.735 1.527.756 0 1.428-.42 1.747-.971v.821H7.89v-3.441c0-1.419-.984-1.992-2.267-1.992l-.001.003zM19.755 12.347v5.269h1.507v-2.54c0-1.205.73-1.56 1.239-1.56.229-.002.453.065.644.19l.276-1.392a1.704 1.704 0 00-.672-.122c-.774 0-1.261.343-1.582 1.04v-.885h-1.412zM30.404 12.192c-.797 0-1.392.47-1.702.925-.288-.587-.897-.925-1.628-.925-.796 0-1.348.442-1.603.952v-.797h-1.453v5.269h1.509v-2.713c0-.97.51-1.44.985-1.44.431 0 .827.278.827.997v3.156h1.505v-2.713c0-.985.497-1.44.996-1.44.398 0 .82.29.82.987v3.166h1.506v-3.643c0-1.183-.796-1.78-1.759-1.78M16.088 12.347h-1.365v-.536c0-.697.398-.896.741-.896.234.004.464.061.672.168l.465-1.062s-.472-.308-1.328-.308c-.963 0-2.058.543-2.058 2.246v.388h-2.281v-.536c0-.697.397-.896.74-.896.235 0 .466.058.673.168l.464-1.062c-.277-.162-.723-.308-1.327-.308-.962 0-2.058.543-2.058 2.246v.388h-.872v1.162h.874v4.107h1.506v-4.107h2.284v4.107h1.505v-4.107h1.365v-1.162z" fill="#101820"/><path d="M18.491 12.347h-1.504v5.266h1.504v-5.266z" fill="#101820"/><path fill-rule="evenodd" clip-rule="evenodd" d="M17.043 11.451h1.473c.86-2.702 3.775-5.077 7.243-5.077 4.217 0 7.862 3.21 7.862 8.21a10.276 10.276 0 01-.418 3.032h1.43l.014-.05c.24-.974.36-1.975.354-2.978 0-5.574-4.062-9.586-9.24-9.586-4.066 0-7.69 2.822-8.718 6.451v-.002z" fill="#4A4AF4"/></g><defs><clipPath id="clip0"><path fill="#fff" transform="translate(3 5)" d="M0 0h32v12.769H0z"/></clipPath></defs></svg>
